packages/kaspersky-hexa-ui-icons/src/iconsSVGs/24/Calls.svg

<svg width="24" height="24" viewBox="0 0 24 24" fill="none" xmlns="http://www.w3.org/2000/svg">
<path fill-rule="evenodd" clip-rule="evenodd" d="M3.00301 3.95549C3.02682 3.42104 3.46704 3 4.00202 3H7.2213C8.13903 3 8.939 3.62459 9.16158 4.51493L9.83399 7.20454C10.0054 7.89002 9.80232 8.61504 9.29987 9.11182L7.22292 11.1653C7.85417 12.1885 8.66551 13.2492 9.70918 14.2929C10.7322 15.3159 11.7996 16.1168 12.844 16.7439L14.8946 14.6933C15.3914 14.1965 16.1123 13.9968 16.7939 14.1672L19.4871 14.8405C20.3775 15.0631 21.0021 15.8631 21.0021 16.7808L21.002 20C21.002 20.5523 20.5543 21 20.002 21V20C20.002 21 20.0025 21 20.002 21L19.9977 21L19.9911 21L19.9714 20.9998C19.9554 20.9995 19.9336 20.9992 19.9064 20.9984C19.8519 20.9969 19.7753 20.9941 19.6784 20.9887C19.4845 20.9778 19.2089 20.9564 18.8654 20.9145C18.1789 20.8308 17.2179 20.6647 16.0949 20.3344C15.0668 20.032 13.8994 19.5909 12.682 18.9476C12.5769 18.9122 12.4765 18.8588 12.3856 18.7875C11.0343 18.0413 9.6308 17.0429 8.29497 15.7071C6.88973 14.3019 5.85447 12.8587 5.09316 11.4847C3.97674 9.4698 3.45369 7.61182 3.20998 6.24926C3.08809 5.56775 3.03578 5.00856 3.0142 4.6132C3.0034 4.41543 3.00028 4.25835 3.00002 4.1471C2.99989 4.09146 3.00047 4.04726 3.00117 4.01512L3.00222 3.97603L3.00268 3.96341L3.00286 3.95886L3.00294 3.95703L3.00301 3.95549C3.00302 3.95512 3.00301 3.95549 4.00202 4L3.00301 3.95549ZM5.05104 5C5.07773 5.25631 5.11805 5.55781 5.17874 5.89714C5.34263 6.81343 5.6543 8.00167 6.24476 9.31996L7.8937 7.68961L7.2213 5H5.05104ZM14.71 17.7063C15.398 18.0069 16.0552 18.238 16.6592 18.4156C17.6035 18.6934 18.414 18.8393 19.002 18.9159L19.0021 16.7808L16.3088 16.1075L14.71 17.7063Z" fill="black"/>
</svg>

<svg xmlns="http://www.w3.org/2000/svg" width="24" height="24" fill="none" viewBox="0 0 24 24"><path fill="#000" fill-rule="evenodd" d="M3.003 3.9555A1 1 0 0 1 4.002 3h3.2193a2 2 0 0 1 1.9403 1.515l.6724 2.6895a2 2 0 0 1-.5341 1.9073l-2.077 2.0535c.6313 1.0232 1.4426 2.0839 2.4863 3.1276a16.27 16.27 0 0 0 3.1348 2.451l2.0506-2.0506a2 2 0 0 1 1.8993-.5261l2.6932.6733a2 2 0 0 1 1.515 1.9403L21.002 20c0 .5523-.4477 1-1 1v-1c0 1 .0005 1 0 1h-.0109l-.0197-.0002q-.0241-.0003-.065-.0014a8 8 0 0 1-.228-.0097 12.6 12.6 0 0 1-.813-.0742c-.6865-.0837-1.6475-.2498-2.7705-.5801a18.47 18.47 0 0 1-3.4129-1.3868 1 1 0 0 1-.2964-.1601c-1.3513-.7462-2.7548-1.7446-4.0906-3.0804-1.4053-1.4052-2.4405-2.8484-3.2018-4.2224C3.9767 9.4698 3.4537 7.6118 3.21 6.2493c-.122-.6815-.1742-1.2407-.1958-1.6361A9 9 0 0 1 3 4.1471a6 6 0 0 1 .0012-.132l.001-.039.0005-.0127.0002-.0045V3.957zc0-.0004 0 0 .999.0445zM5.051 5c.0267.2563.067.5578.1277.8971.164.9163.4756 2.1046 1.066 3.4229l1.649-1.6304L7.2213 5zm9.659 12.7063c.688.3006 1.3452.5317 1.9492.7093.9443.2778 1.7548.4237 2.3428.5003l.0001-2.1351-2.6933-.6733z"/></svg>
